X:8
T:Empty Wallet Waltz
R:waltz
C:Fredrik Jakobsson, Sweden
Z:id:hn-waltz-8
M:3/4
K:G
G2|B3 A G2|E4 G2|A4 B2|A4 B2|d3 B G2|e3 d B2|A3 BAG|E4 G2|
B3 A G2|E4 G2|A4 B2|A4 B2|G3 F E2|E2 F2 D2|E6|1 E4:|2 E3 FGA||
Bd d2 B2|Ad d2 A2|GF GB AG|FGFE D2|EG G2 E2|DG G2 AB|c2 cB AG|A3 AGA|
Bd d2 B2|Ad d2 A2|GF GB AG|FGFE D2|EG G2 E2|DG G2 AB|cB AG GF|G4||
P:my version
|:G2|B3 A G2|E4 G2|A3 GAB|A4 B2|d2 dB G2|e3 d B2|A3 BAG|E4 G2|
B3 A G2|E4 G2|A2 AG AB|A4 B2|G2 GF E2|E3 F D2|E6|1 E4:|2 E3 FGA||
(3Bcd d2 B2|Ad d2 A2|GF GB AG|FGEF D2|EG G2 E2|DG G2 AB|c2 cB AG|A3 AGA|
(3Bcd d2 B2|Ad d2 A2|GF GB AG|FGEF D2|EG G2 E2|DG G2 AB|BA AG GF|G4||

